X:203
T:The Priest in his Boots
Z:Jack Campin, http://www.campin.me.uk/
F:Jack Campin's Nine-Note Tunebook
% last edit 03-02-2013
M:6/8
L:1/8
Q:3/8=124
N:normally played in D
K:G
F/G/|A2A A2A|A2G FED|GFG BAG|F2G A2
F/G/|A2A A2A|A2G FED|GFG Bcd|cAF G2:|
B/c/|d2B c2A|B2G AFD|GFG BAG|F2G A2
B/c/|d2B c2A|B2G AFD|GFG Bcd|cAF G2:|

